X:8
T:11a. Foxes, The
C:Larry Mallette
R:slip jig
N:Dedicated to Lyn, Grady, Bryce and Brett Fox.
M:6/8
Q:250
K:ADor
B3 G2E DEG|B3 c2e dBG|B3 G2E DEG|A3 AGE DEG|
B3 G2E DEG|B3 c2e dBG|B3 G2E AGF|G2B G2z DEG||
B2(G F2)(B E3)|BGE DEG A3|B2(G F2)(D E3)|D3 DEF G3|
B2(G F2)(B E3)|BGE DEG A3|B2(G F2)(D E3)|D2E FED G3|]





